X: 734
T: Sunderland Hornpipe
M:3/2
L:1/8
C:Ravenscroft
S: 8: MCJLSH3 http://www.cpartington.plus.com/links/Walsh.abc
Z: Pete Stewart 2004
N:'superfluous' accidentals are as printe
B: Walsh "Third Book of the most Celebrated jiggs, Lancashire hornpipes, ..."
K:D
DEFG ABcAd4 | fgaf e2dcB2A2 | BcdBA2GFG2B2 | egbg edcB AGFE |
DEFG ABcAd4 | fgaf e2dcB2A2 | BcdB A2GFE2c2 | dBAG FdEcd4 ||
ABcd efgaf4 | bagf gefg c2A2 | DEFG AB^cdB4 | egba gfed c2A2 |
afdB ^cedc B2A2 | bgec dfedc2A2 | afge fdec dBAG | F2d2E2c2d2 ||

%%sep 1 1 500
%%sep 1 1 500
